X:1
T:The Day-Star Hath Risen
T:George Coles Stebbins (1846-1945)
T:The Day-Star Hath Risen
T:Public Domain
T:Public Domain
C:George Coles Stebbins (1846-1945)
Z:Public Domain
%%score ( 1 2 ) ( 3 4 )
L:1/8
M:6/8
K:E
V:1 treble 
V:2 treble 
V:3 bass 
V:4 bass 
V:1
 ([EG]/[FA]/) | [GB][GB][GB] [Ac][GB]>[Be] | [ce][Bd][Ac] [GB]2 [GB] | [GB][FA][EG] [FA][Fd]>[Ec] | %4
w: 1.~The *|Day- Star hath ris- en, the|night clouds have flown; No|long- er in sad- ness I|
w: 2.~The *|Day- Star hath ris- en, in|beau- ty sub- lime, To|cheer and il- lu- mine each|
w: 3.~The *|Day- Star hath ris- en, it|shin- eth for all; O’er|paths that are lone- ly its|
 [Ec][EF][Ec] [DB]2 [AB] | [GB][=F^A][GB] [=Ac][GB]>[Be] | [ce][Bd][Ac] [GB]2 [GB] | %7
w: wan- der a- lone; Its|beams in the val- ley re-|flect- ed I see; The|
w: far dist- ant clime; The|re- gions in dark- ness its|beau- ty shall see; The|
w: bright- ness will fall; O|bless- èd Re- deem- er, all|hon- or to Thee, Thou|
 [Ac][Bd][Ac] [GB][Ee]>[EA] | [EG][EG]>[DF] E2 ||"^Refrain" [GB] | ([GB]3 [EG])[FA][Ac] | %11
w: Day- Star hath ris- en— it|shin- eth for me.|shin-|eth * for me,|
w: Day- Star hath ris- en— it|shin- eth for me.|||
w: Day- Star of glo- ry that|shin- est for me!|||
 ([G-B]3 [Ge]3) | ([Ac]3 [ce])[Bd][Ac] | [GB]3- [GB]2 [GB] | [Ad]3- [Ad][Ac][Ad] | %15
w: shin- *|eth * for me;|The * Day-|Star * hath ris-|
w: ||||
w: ||||
 [Ge]3 [EB]2 [EA] | [EG-]3 [DG][DF][DG] | B,A,C [B,E]2 x |] x5 |] %19
w: en, It shin-|eth for me. *|||
w: ||||
w: ||||
V:2
 x | x6 | x6 | x6 | x6 | x6 | x6 | x6 | x3 E2 || x | x6 | x6 | x6 | x6 | x6 | x6 | x6 | E3- x3 |] %18
w: ||||||||It||||||||||
 x5 |] %19
w: |
V:3
 [E,B,] | [E,B,][E,E][E,E] [E,E][E,E]>[E,E] | [A,E][A,E][A,E] [A,E]2 [E,B,] | %3
w: ~|~ ~ ~ ~ ~ ~|~ ~ ~ ~ ~|
 [B,,B,][B,,B,][B,,B,] [B,,B,][B,,B,]>[B,,B,] | [F,^A,][F,A,][F,A,] [B,,B,]2 [B,,B,] | %5
w: ~ ~ ~ ~ ~ ~|~ ~ ~ ~ ~|
 [E,B,][E,C][E,B,] [E,E][E,E]>[E,E] | [A,E][A,E][A,E] [E,E]2 [E,E] | %7
w: ~ ~ ~ ~ ~ ~|~ ~ ~ ~ ~|
 [A,E][A,E][A,E] [E,E][G,B,]>[F,C] | B,B,>[B,,A,] [E,G,]2 || [E,B,] | %10
w: ~ ~ ~ ~ ~ ~|~ ~ ~ ~|eth,|
 [E,B,][E,E][E,E] [E,B,][E,B,][E,E] | [E,E]2 [E,E] [E,B,]3 | A,[A,C][A,E] [A,C][A,D][A,E] | %13
w: it shin- eth, for me, for|me; Shin- eth,|it shin- eth for me, for|
 [E,E]2 [E,E] [E,E]2 [E,B,] | [B,,B,][B,,B,][B,,B,] [B,,B,][B,,B,][B,,B,] | %15
w: The Day- Star, the|Day- Star hath ris- en, hath|
 [E,B,]2 [E,B,]/[E,B,]/ [=D,=D][D,D] x | [C,C] x5 | %17
w: ris- en, It shin- eth,|it|
 [C,B,]2 [C,^A,]/[C,A,]/ [B,,B,][B,,=A,][B,,B,] |] G,F,A, [E,G,]2 |] %19
w: shin- eth, it shin- eth for|me, for me. *|
V:4
 x | x6 | x6 | x6 | x6 | x6 | x6 | x6 | B,B,3/2 x5/2 || x | x6 | x6 | A, x5 | x6 | x6 | x6 | x6 | %17
w: ||||||||It shin-||||mel|||||
 x6 |] E,3 x2 |] %19
w: ||

